src/assets/footer/facebook.svg

<svg height="16" viewBox="0 0 16 16" width="16" xmlns="http://www.w3.org/2000/svg"><path d="m1426 211.116583c0 .487688-.3953.883417-.88301.883417h-4.07725v-6.196121h2.07982l.31162-2.41447h-2.39144v-1.541948c0-.699063.19439-1.175419 1.19681-1.175419l1.27875-.000436v-2.159948c-.22141-.0292-.9802-.095009-1.86321-.095009-1.84359 0-3.10577 1.125299-3.10577 3.19198v1.78078h-2.08504v2.41447h2.08504v6.196121h-7.66331c-.48771 0-.88301-.395729-.88301-.883417v-14.233166c0-.488124.3953-.883417.88301-.883417h14.23398c.48771 0 .88301.395293.88301.883417z" fill="#565960" fill-rule="evenodd" opacity=".5" transform="translate(-1410 -196)"/></svg>

<?xml version="1.0" encoding="UTF-8"?>
<svg width="16px" height="16px" viewBox="0 0 16 16" version="1.1" xmlns="http://www.w3.org/2000/svg" xmlns:xlink="http://www.w3.org/1999/xlink">
    <title>17DDB114-7D83-41BD-93D2-3EF0DA1FFB64@2x</title>
    <g id="Design" stroke="none" stroke-width="1" fill="none" fill-rule="evenodd" opacity="0.5">
        <g id="Homepage" transform="translate(-1410.000000, -14649.000000)" fill="#565960">
            <g id="FOOTER" transform="translate(-99.000000, 11359.000000)">
                <g id="♣️-Block_Contact" transform="translate(99.000000, 3094.000000)">
                    <path d="M1426,211.116583 C1426,211.604271 1425.6047,212 1425.11699,212 L1421.03974,212 L1421.03974,205.803879 L1423.11956,205.803879 L1423.43118,203.389409 L1421.03974,203.389409 L1421.03974,201.847461 C1421.03974,201.148398 1421.23413,200.672042 1422.23655,200.672042 L1423.5153,200.671606 L1423.5153,198.511658 C1423.29389,198.482458 1422.5351,198.416649 1421.65209,198.416649 C1419.8085,198.416649 1418.54632,199.541948 1418.54632,201.608629 L1418.54632,203.389409 L1416.46128,203.389409 L1416.46128,205.803879 L1418.54632,205.803879 L1418.54632,212 L1410.88301,212 C1410.3953,212 1410,211.604271 1410,211.116583 L1410,196.883417 C1410,196.395293 1410.3953,196 1410.88301,196 L1425.11699,196 C1425.6047,196 1426,196.395293 1426,196.883417 L1426,211.116583" id="Facebook"></path>
                </g>
            </g>
        </g>
    </g>
</svg>
